static/icons/nav-button.svg

<svg width="30" height="26" viewBox="0 0 30 26" fill="none" xmlns="http://www.w3.org/2000/svg">
<path d="M29 15H1C0.448 15 0 14.106 0 13C0 11.894 0.448 11 1 11H29C29.552 11 30 11.894 30 13C30 14.106 29.552 15 29 15Z" fill="#006572"/>
<path d="M29 4H1C0.448 4 0 3.106 0 2C0 0.894 0.448 0 1 0H29C29.552 0 30 0.894 30 2C30 3.106 29.552 4 29 4Z" fill="#515151"/>
<path d="M15 26H1C0.448 26 0 25.106 0 24C0 22.894 0.448 22 1 22H15C15.552 22 16 22.894 16 24C16 25.106 15.552 26 15 26Z" fill="#515151"/>
</svg>

<svg width="30" height="26" fill="none" xmlns="http://www.w3.org/2000/svg"><path d="M29 15H1c-.6 0-1-.9-1-2s.4-2 1-2h28c.6 0 1 .9 1 2s-.4 2-1 2z" fill="#006572"/><path d="M29 4H1c-.6 0-1-.9-1-2s.4-2 1-2h28c.6 0 1 .9 1 2s-.4 2-1 2zM15 26H1c-.6 0-1-.9-1-2s.4-2 1-2h14c.6 0 1 .9 1 2s-.4 2-1 2z" fill="#515151"/></svg>
